X: 65
T:Croen y Ddeted Felan
% Nottingham Music Database
P:/f2Dotted/fP
S:Helen
M:4/4
L:1/8
R:Hornpipe
K:G
|:"G"GABc d2d2|"C"cBcA "D"d2d2|"C"cBAA "G"BAGG|"Am"AGFG "D"A2d2|
"G"GABc d2d2|"C"cBcA "D"d2d2|"C"cBAA "G"BAGG|"D"AAdd "G"G2G2:|
|:"Em"gfeg "D"f2f2|"C"cBcA "D"d4|"C"edce "G"d2B2|"Em"GABG "D"A4|
"Em"gfeg "D"f2f2|"C"edce "G"d4|"C"cBAc "G"BAGB|"D"A2F2 "G"G4:|
<end>
<start>
